usr/share/icons/biglinux-icons-material/22/actions/view-financial-account-asset.svg

<svg xmlns="http://www.w3.org/2000/svg" viewBox="0 0 22 22"><path d="m5 4-2 6v7h1v2h2v-2h10v2h2v-2h1v-7l-2-6H5zm.72 1h10.56l1.665 5H4.055L5.72 5zM4 11h14v5H4v-5zm2.5 1A1.5 1 0 0 0 5 13a1.5 1 0 0 0 1.5 1A1.5 1 0 0 0 8 13a1.5 1 0 0 0-1.5-1zm9 0a1.5 1 0 0 0-1.5 1 1.5 1 0 0 0 1.5 1 1.5 1 0 0 0 1.5-1 1.5 1 0 0 0-1.5-1z" style="fill:currentColor;fill-opacity:1;stroke:none;color:#dedede"/></svg>

<svg xmlns="http://www.w3.org/2000/svg" viewBox="0 0 22 22">
  <defs id="defs3051">
    <style type="text/css" id="current-color-scheme">
      .ColorScheme-Text {
        color:#363636;
      }
      </style>
  </defs>
  <path
     style="fill:currentColor;fill-opacity:1;stroke:none" 
     d="M 5 4 L 3 10 L 3 17 L 4 17 L 4 19 L 6 19 L 6 17 L 16 17 L 16 19 L 18 19 L 18 17 L 19 17 L 19 10 L 17 4 L 5 4 z M 5.7207031 5 L 16.279297 5 L 17.945312 10 L 4.0546875 10 L 5.7207031 5 z M 4 11 L 18 11 L 18 16 L 6 16 L 4 16 L 4 11 z M 6.5 12 A 1.5 1 0 0 0 5 13 A 1.5 1 0 0 0 6.5 14 A 1.5 1 0 0 0 8 13 A 1.5 1 0 0 0 6.5 12 z M 15.5 12 A 1.5 1 0 0 0 14 13 A 1.5 1 0 0 0 15.5 14 A 1.5 1 0 0 0 17 13 A 1.5 1 0 0 0 15.5 12 z "
    class="ColorScheme-Text"
      />
</svg>
